Newaita-dark/apps/16/gnome-todo.svg

<svg height="16" viewBox="0 0 16 16" width="16" xmlns="http://www.w3.org/2000/svg" xmlns:xlink="http://www.w3.org/1999/xlink"><linearGradient id="a" gradientUnits="userSpaceOnUse" x1="7.6075" x2="7.6075" y1="14.0169685" y2="14.67849050002"><stop offset="0" stop-opacity=".27451"/><stop offset="1" stop-opacity="0"/></linearGradient><linearGradient id="b"><stop offset="0" stop-opacity=".313726"/><stop offset=".222222" stop-opacity=".27451"/><stop offset="1" stop-opacity="0"/></linearGradient><radialGradient id="c" cx="450.908936" cy="189.579361" gradientTransform="matrix(.00000009 -.0390662 -.0703192 -.00000005 25.734564 31.797666)" gradientUnits="userSpaceOnUse" r="21.166656" xlink:href="#b"/><radialGradient id="d" cx="450.908936" cy="189.579361" gradientTransform="matrix(-.00000009 .0390662 .0703192 .00000005 -10.519567 -3.763739)" gradientUnits="userSpaceOnUse" r="21.166656" xlink:href="#b"/><radialGradient id="e" cx="450.908936" cy="189.579361" gradientTransform="matrix(-.00000009 -.0390662 .0703192 -.00000005 -10.519567 31.797666)" gradientUnits="userSpaceOnUse" r="21.166656" xlink:href="#b"/><radialGradient id="f" cx="450.908936" cy="189.579361" gradientTransform="matrix(.00000009 .0390662 -.0703192 .00000005 25.734563 -3.76374)" gradientUnits="userSpaceOnUse" r="21.166656" xlink:href="#b"/><linearGradient id="g" gradientUnits="userSpaceOnUse" x1="4.96141349998" x2="4.96141349998" y1="14.0169675" y2="1.44805300003"><stop offset="0" stop-color="#ab47bc"/><stop offset="1" stop-color="#ba68c8"/></linearGradient><linearGradient id="h"><stop offset="0" stop-color="#e0e0e0"/><stop offset="1" stop-color="#eee"/></linearGradient><linearGradient id="i" gradientUnits="userSpaceOnUse" x1="7.60750028117" x2="7.60750125002" xlink:href="#h" y1="14.0169675" y2="1.44805249998"/><linearGradient id="j" gradientUnits="userSpaceOnUse" x1="7.6074984" x2="7.6074984" xlink:href="#h" y1="14.01696600048" y2="1.4480552201"/><path d="m2.644531 13.96875h9.925781v.734375h-9.925781zm0 0" fill="url(#a)"/><path d="m12.570312 14.015625h1.320313v-.660156h-1.320313zm0 0" fill="url(#c)"/><path d="m2.644531 14.015625h-1.320312v.664063h1.320312zm0 0" fill="url(#d)"/><path d="m2.644531 14.015625h-1.320312v-.660156h1.320312zm0 0" fill="url(#e)"/><path d="m12.570312 14.015625h1.320313v.664063h-1.320313zm0 0" fill="url(#f)"/><path d="m1.984375 1.449219h11.246094c.367187 0 .660156.296875.660156.660156v11.246094c0 .367187-.292969.660156-.660156.660156h-11.246094c-.363281 0-.660156-.292969-.660156-.660156v-11.246094c0-.363281.296875-.660156.660156-.660156zm0 0" fill="url(#g)"/><path d="m1.984375 1.5c-.367187 0-.660156.296875-.660156.660156v.085938c0-.367188.292969-.664063.660156-.664063h11.246094c.367187 0 .660156.296875.660156.664063v-.085938c0-.363281-.292969-.660156-.660156-.660156zm0 0" fill="#e6e6e6" fill-opacity=".392157"/><path d="m1.984375 13.964844c-.367187 0-.660156-.292969-.660156-.660156v-.082032c0 .367188.292969.660156.660156.660156h11.246094c.367187 0 .660156-.292968.660156-.660156v.082032c0 .367187-.292969.660156-.660156.660156zm0 0" fill-opacity=".196078"/><path d="m63.493937-168.629428h359.840637c11.748878 0 21.122982 9.499093 21.122982 21.122983v359.840637c0 11.748878-9.374104 21.122982-21.122982 21.122982h-359.840637c-11.62389 0-21.122983-9.374104-21.122983-21.122982v-359.840637c0-11.62389 9.499093-21.122983 21.122983-21.122983zm0 0" fill="none" stroke="#212121" stroke-linecap="round" stroke-width="3" transform="matrix(.031253 0 0 .031253 0 6.719392)"/><path d="m14.539062 3.085938c-.171874.003906-.339843.078124-.460937.203124l-6.496094 6.5-2.503906-2.226562c-.179687-.164062-.433594-.21875-.664063-.144531-.230468.074219-.402343.269531-.449218.507812-.046875.234375.035156.480469.21875.640625l2.976562 2.644532c.265625.234374.671875.222656.921875-.027344l6.945313-6.945313c.199218-.191406.257812-.488281.152344-.742187-.109376-.257813-.363282-.417969-.640626-.410156zm0 0" fill="url(#i)"/><path d="m14.539062 3.085938c-.171874.003906-.339843.078124-.460937.203124l-6.496094 6.5-2.503906-2.226562c-.214844-.195312-.53125-.234375-.785156-.089844-.253907.140625-.382813.429688-.328125.714844.046875-.234375.21875-.429688.449218-.503906.230469-.074219.484376-.019532.664063.140625l2.503906 2.226562 6.496094-6.496093c.121094-.125.289063-.199219.460937-.203126.328126-.011718.613282.214844.679688.539063.039062-.203125-.015625-.410156-.144531-.566406-.132813-.15625-.328125-.246094-.535157-.238281zm0 0" fill="#fff" fill-opacity=".954839"/><path d="m13.890625 5.386719-5.808594 5.808593c-.25.253907-.65625.265626-.921875.027344l-2.976562-2.644531c-.101563-.089844-.175782-.210937-.210938-.34375-.0625.246094.019532.507813.210938.671875l2.976562 2.648438c.265625.234374.671875.222656.921875-.027344l5.808594-5.808594zm0 0" fill-opacity=".235294"/><path d="m465.205575-116.259429c-5.499475.124988-10.873962 2.499761-14.748591 6.499379l-207.855151 207.980139-80.117349-71.243197c-5.749451-5.249498-13.873676-6.999331-21.247971-4.624558-7.374296 2.374773-12.873771 8.624176-14.373628 16.248448-1.499857 7.499284 1.124893 15.373532 6.999332 20.498043l95.240905 84.616919c8.499188 7.499284 21.497947 7.12432 29.497183-.874916l222.228778-222.228778c6.374391-6.124415 8.249212-15.623508 4.874535-23.747733-3.499666-8.249212-11.62389-13.373722-20.498043-13.123746zm0 0" fill="none" stroke="#212121" stroke-linecap="round" stroke-linejoin="round" stroke-width="3" transform="matrix(.031253 0 0 .031253 0 6.719392)"/><path d="m3.308594 2.582031c-.46875 0-.851563.382813-.851563.851563v8.597656c0 .46875.382813.851562.851563.851562h8.597656c.46875 0 .851562-.382812.851562-.851562v-4.574219l-.375.375v4.199219c0 .265625-.210937.476562-.476562.476562h-8.597656c-.265625 0-.476563-.210937-.476563-.476562v-8.597656c0-.265625.210938-.476563.476563-.476563h8.597656c.265625 0 .476562.210938.476562.476563v.605468l.375-.375v-.230468c0-.46875-.382812-.851563-.851562-.851563zm0 0" fill="url(#j)"/><path d="m3.308594 2.582031c-.46875 0-.851563.382813-.851563.851563v.140625c0-.46875.382813-.851563.851563-.851563h8.597656c.46875 0 .851562.382813.851562.851563v-.140625c0-.46875-.382812-.851563-.851562-.851563zm9.449218 4.875-.375.375v.140625l.375-.375zm-9.925781 4.574219v.140625c0 .265625.210938.472656.476563.472656h8.597656c.265625 0 .476562-.207031.476562-.472656v-.140625c0 .265625-.210937.476562-.476562.476562h-8.597656c-.265625 0-.476563-.210937-.476563-.476562zm0 0" fill="#fafafa"/><path d="m3.308594 2.976562c-.265625 0-.476563.207032-.476563.472657v.25c0-.265625.210938-.472657.476563-.472657h8.597656c.265625 0 .476562.207032.476562.472657v-.25c0-.265625-.210937-.472657-.476562-.472657zm9.449218.703126-.375.375v.25l.375-.375v-.230469c0-.007813 0-.011719 0-.019531zm-10.300781 8.371093v.25c0 .464844.382813.847657.851563.847657h8.597656c.46875 0 .851562-.382813.851562-.847657v-.25c0 .46875-.382812.847657-.851562.847657h-8.597656c-.46875 0-.851563-.378907-.851563-.847657zm0 0" fill-opacity=".235294"/><path d="m400.119292 312.253662c-56.687503 0-102.982297 46.294794-102.982297 102.982297v1039.743284c0 56.687503 46.294794 102.982297 102.982297 102.982297h1039.743284c56.687503 0 102.982297-46.294794 102.982297-102.982297v-553.17555l-45.350003 45.350003v507.825547c0 32.122919-25.509376 57.632295-57.632294 57.632295h-1039.743284c-32.122918 0-57.632295-25.509376-57.632295-57.632295v-1039.743284c0-32.122918 25.509377-57.632294 57.632295-57.632294h1039.743284c32.122918 0 57.632294 25.509376 57.632294 57.632294v73.221358l45.350003-45.350002v-27.871356c0-56.687503-46.294794-102.982297-102.982297-102.982297zm0 0" fill="none" stroke="#212121" stroke-linecap="round" stroke-linejoin="round" stroke-width="11.338583" transform="scale(.00826902)"/></svg>

<?xml version="1.0" encoding="UTF-8"?>
<svg xmlns="http://www.w3.org/2000/svg" xmlns:xlink="http://www.w3.org/1999/xlink" width="16px" height="16px" viewBox="0 0 16 16" version="1.1">
<defs>
<linearGradient id="linear0" gradientUnits="userSpaceOnUse" x1="254" y1="233.5" x2="254" y2="254.666672" gradientTransform="matrix(0.031253,0,0,0.031253,-0.330762,6.719393)">
<stop offset="0" style="stop-color:rgb(0%,0%,0%);stop-opacity:0.27451;"/>
<stop offset="1" style="stop-color:rgb(0%,0%,0%);stop-opacity:0;"/>
</linearGradient>
<radialGradient id="radial0" gradientUnits="userSpaceOnUse" cx="450.908936" cy="189.579361" fx="450.908936" fy="189.579361" r="21.166656" gradientTransform="matrix(0.0000000870852,-0.0390662,-0.0703192,-0.0000000507693,25.734564,31.797666)">
<stop offset="0" style="stop-color:rgb(0%,0%,0%);stop-opacity:0.313726;"/>
<stop offset="0.222222" style="stop-color:rgb(0%,0%,0%);stop-opacity:0.27451;"/>
<stop offset="1" style="stop-color:rgb(0%,0%,0%);stop-opacity:0;"/>
</radialGradient>
<radialGradient id="radial1" gradientUnits="userSpaceOnUse" cx="450.908936" cy="189.579361" fx="450.908936" fy="189.579361" r="21.166656" gradientTransform="matrix(-0.0000000870852,0.0390662,0.0703192,0.0000000507693,-10.519567,-3.763739)">
<stop offset="0" style="stop-color:rgb(0%,0%,0%);stop-opacity:0.313726;"/>
<stop offset="0.222222" style="stop-color:rgb(0%,0%,0%);stop-opacity:0.27451;"/>
<stop offset="1" style="stop-color:rgb(0%,0%,0%);stop-opacity:0;"/>
</radialGradient>
<radialGradient id="radial2" gradientUnits="userSpaceOnUse" cx="450.908936" cy="189.579361" fx="450.908936" fy="189.579361" r="21.166656" gradientTransform="matrix(-0.0000000870852,-0.0390662,0.0703192,-0.0000000507693,-10.519567,31.797666)">
<stop offset="0" style="stop-color:rgb(0%,0%,0%);stop-opacity:0.313726;"/>
<stop offset="0.222222" style="stop-color:rgb(0%,0%,0%);stop-opacity:0.27451;"/>
<stop offset="1" style="stop-color:rgb(0%,0%,0%);stop-opacity:0;"/>
</radialGradient>
<radialGradient id="radial3" gradientUnits="userSpaceOnUse" cx="450.908936" cy="189.579361" fx="450.908936" fy="189.579361" r="21.166656" gradientTransform="matrix(0.0000000870852,0.0390662,-0.0703192,0.0000000507693,25.734563,-3.76374)">
<stop offset="0" style="stop-color:rgb(0%,0%,0%);stop-opacity:0.313726;"/>
<stop offset="0.222222" style="stop-color:rgb(0%,0%,0%);stop-opacity:0.27451;"/>
<stop offset="1" style="stop-color:rgb(0%,0%,0%);stop-opacity:0;"/>
</radialGradient>
<linearGradient id="linear1" gradientUnits="userSpaceOnUse" x1="169.333328" y1="233.5" x2="169.333328" y2="-168.666656" gradientTransform="matrix(0.031253,0,0,0.031253,-0.330761,6.719392)">
<stop offset="0" style="stop-color:rgb(67.058825%,27.843139%,73.725492%);stop-opacity:1;"/>
<stop offset="1" style="stop-color:rgb(72.941178%,40.784314%,78.431374%);stop-opacity:1;"/>
</linearGradient>
<linearGradient id="linear2" gradientUnits="userSpaceOnUse" x1="243.416641" y1="233.5" x2="243.416672" y2="-168.666672" gradientTransform="matrix(0.031253,0,0,0.031253,0,6.719392)">
<stop offset="0" style="stop-color:rgb(87.843138%,87.843138%,87.843138%);stop-opacity:1;"/>
<stop offset="1" style="stop-color:rgb(93.333334%,93.333334%,93.333334%);stop-opacity:1;"/>
</linearGradient>
<linearGradient id="linear3" gradientUnits="userSpaceOnUse" x1="920" y1="1695.118164" x2="920" y2="175.118118" gradientTransform="matrix(0.00826902,0,0,0.00826902,0,0)">
<stop offset="0" style="stop-color:rgb(87.843138%,87.843138%,87.843138%);stop-opacity:1;"/>
<stop offset="1" style="stop-color:rgb(93.333334%,93.333334%,93.333334%);stop-opacity:1;"/>
</linearGradient>
</defs>
<g id="surface1">
<path style=" stroke:none;fill-rule:nonzero;fill:url(#linear0);" d="M 2.644531 13.96875 L 12.570312 13.96875 L 12.570312 14.703125 L 2.644531 14.703125 Z M 2.644531 13.96875 "/>
<path style=" stroke:none;fill-rule:nonzero;fill:url(#radial0);" d="M 12.570312 14.015625 L 13.890625 14.015625 L 13.890625 13.355469 L 12.570312 13.355469 Z M 12.570312 14.015625 "/>
<path style=" stroke:none;fill-rule:nonzero;fill:url(#radial1);" d="M 2.644531 14.015625 L 1.324219 14.015625 L 1.324219 14.679688 L 2.644531 14.679688 Z M 2.644531 14.015625 "/>
<path style=" stroke:none;fill-rule:nonzero;fill:url(#radial2);" d="M 2.644531 14.015625 L 1.324219 14.015625 L 1.324219 13.355469 L 2.644531 13.355469 Z M 2.644531 14.015625 "/>
<path style=" stroke:none;fill-rule:nonzero;fill:url(#radial3);" d="M 12.570312 14.015625 L 13.890625 14.015625 L 13.890625 14.679688 L 12.570312 14.679688 Z M 12.570312 14.015625 "/>
<path style=" stroke:none;fill-rule:nonzero;fill:url(#linear1);" d="M 1.984375 1.449219 L 13.230469 1.449219 C 13.597656 1.449219 13.890625 1.746094 13.890625 2.109375 L 13.890625 13.355469 C 13.890625 13.722656 13.597656 14.015625 13.230469 14.015625 L 1.984375 14.015625 C 1.621094 14.015625 1.324219 13.722656 1.324219 13.355469 L 1.324219 2.109375 C 1.324219 1.746094 1.621094 1.449219 1.984375 1.449219 Z M 1.984375 1.449219 "/>
<path style=" stroke:none;fill-rule:nonzero;fill:rgb(90.196079%,90.196079%,90.196079%);fill-opacity:0.392157;" d="M 1.984375 1.5 C 1.617188 1.5 1.324219 1.796875 1.324219 2.160156 L 1.324219 2.246094 C 1.324219 1.878906 1.617188 1.582031 1.984375 1.582031 L 13.230469 1.582031 C 13.597656 1.582031 13.890625 1.878906 13.890625 2.246094 L 13.890625 2.160156 C 13.890625 1.796875 13.597656 1.5 13.230469 1.5 Z M 1.984375 1.5 "/>
<path style=" stroke:none;fill-rule:nonzero;fill:rgb(0%,0%,0%);fill-opacity:0.196078;" d="M 1.984375 13.964844 C 1.617188 13.964844 1.324219 13.671875 1.324219 13.304688 L 1.324219 13.222656 C 1.324219 13.589844 1.617188 13.882812 1.984375 13.882812 L 13.230469 13.882812 C 13.597656 13.882812 13.890625 13.589844 13.890625 13.222656 L 13.890625 13.304688 C 13.890625 13.671875 13.597656 13.964844 13.230469 13.964844 Z M 1.984375 13.964844 "/>
<path style="fill:none;stroke-width:3;stroke-linecap:round;stroke-linejoin:miter;stroke:rgb(12.941177%,12.941177%,12.941177%);stroke-opacity:1;stroke-miterlimit:4;" d="M 63.493937 -168.629428 L 423.334574 -168.629428 C 435.083452 -168.629428 444.457556 -159.130335 444.457556 -147.506445 L 444.457556 212.334192 C 444.457556 224.08307 435.083452 233.457174 423.334574 233.457174 L 63.493937 233.457174 C 51.870047 233.457174 42.370954 224.08307 42.370954 212.334192 L 42.370954 -147.506445 C 42.370954 -159.130335 51.870047 -168.629428 63.493937 -168.629428 Z M 63.493937 -168.629428 " transform="matrix(0.031253,0,0,0.031253,0,6.719392)"/>
<path style=" stroke:none;fill-rule:nonzero;fill:url(#linear2);" d="M 14.539062 3.085938 C 14.367188 3.089844 14.199219 3.164062 14.078125 3.289062 L 7.582031 9.789062 L 5.078125 7.5625 C 4.898438 7.398438 4.644531 7.34375 4.414062 7.417969 C 4.183594 7.492188 4.011719 7.6875 3.964844 7.925781 C 3.917969 8.160156 4 8.40625 4.183594 8.566406 L 7.160156 11.210938 C 7.425781 11.445312 7.832031 11.433594 8.082031 11.183594 L 15.027344 4.238281 C 15.226562 4.046875 15.285156 3.75 15.179688 3.496094 C 15.070312 3.238281 14.816406 3.078125 14.539062 3.085938 Z M 14.539062 3.085938 "/>
<path style=" stroke:none;fill-rule:nonzero;fill:rgb(100%,100%,100%);fill-opacity:0.954839;" d="M 14.539062 3.085938 C 14.367188 3.089844 14.199219 3.164062 14.078125 3.289062 L 7.582031 9.789062 L 5.078125 7.5625 C 4.863281 7.367188 4.546875 7.328125 4.292969 7.472656 C 4.039062 7.613281 3.910156 7.902344 3.964844 8.1875 C 4.011719 7.953125 4.183594 7.757812 4.414062 7.683594 C 4.644531 7.609375 4.898438 7.664062 5.078125 7.824219 L 7.582031 10.050781 L 14.078125 3.554688 C 14.199219 3.429688 14.367188 3.355469 14.539062 3.351562 C 14.867188 3.339844 15.152344 3.566406 15.21875 3.890625 C 15.257812 3.6875 15.203125 3.480469 15.074219 3.324219 C 14.941406 3.167969 14.746094 3.078125 14.539062 3.085938 Z M 14.539062 3.085938 "/>
<path style=" stroke:none;fill-rule:nonzero;fill:rgb(0%,0%,0%);fill-opacity:0.235294;" d="M 13.890625 5.386719 L 8.082031 11.195312 C 7.832031 11.449219 7.425781 11.460938 7.160156 11.222656 L 4.183594 8.578125 C 4.082031 8.488281 4.007812 8.367188 3.972656 8.234375 C 3.910156 8.480469 3.992188 8.742188 4.183594 8.90625 L 7.160156 11.554688 C 7.425781 11.789062 7.832031 11.777344 8.082031 11.527344 L 13.890625 5.71875 Z M 13.890625 5.386719 "/>
<path style="fill:none;stroke-width:3;stroke-linecap:round;stroke-linejoin:round;stroke:rgb(12.941177%,12.941177%,12.941177%);stroke-opacity:1;stroke-miterlimit:4;" d="M 465.205575 -116.259429 C 459.7061 -116.134441 454.331613 -113.759668 450.456984 -109.76005 L 242.601833 98.220089 L 162.484484 26.976892 C 156.735033 21.727394 148.610808 19.977561 141.236513 22.352334 C 133.862217 24.727107 128.362742 30.97651 126.862885 38.600782 C 125.363028 46.100066 127.987778 53.974314 133.862217 59.098825 L 229.103122 143.715744 C 237.60231 151.215028 250.601069 150.840064 258.600305 142.840828 L 480.829083 -79.38795 C 487.203474 -85.512365 489.078295 -95.011458 485.703618 -103.135683 C 482.203952 -111.384895 474.079728 -116.509405 465.205575 -116.259429 Z M 465.205575 -116.259429 " transform="matrix(0.031253,0,0,0.031253,0,6.719392)"/>
<path style=" stroke:none;fill-rule:nonzero;fill:url(#linear3);" d="M 3.308594 2.582031 C 2.839844 2.582031 2.457031 2.964844 2.457031 3.433594 L 2.457031 12.03125 C 2.457031 12.5 2.839844 12.882812 3.308594 12.882812 L 11.90625 12.882812 C 12.375 12.882812 12.757812 12.5 12.757812 12.03125 L 12.757812 7.457031 L 12.382812 7.832031 L 12.382812 12.03125 C 12.382812 12.296875 12.171875 12.507812 11.90625 12.507812 L 3.308594 12.507812 C 3.042969 12.507812 2.832031 12.296875 2.832031 12.03125 L 2.832031 3.433594 C 2.832031 3.167969 3.042969 2.957031 3.308594 2.957031 L 11.90625 2.957031 C 12.171875 2.957031 12.382812 3.167969 12.382812 3.433594 L 12.382812 4.039062 L 12.757812 3.664062 L 12.757812 3.433594 C 12.757812 2.964844 12.375 2.582031 11.90625 2.582031 Z M 3.308594 2.582031 "/>
<path style=" stroke:none;fill-rule:nonzero;fill:rgb(98.039216%,98.039216%,98.039216%);fill-opacity:1;" d="M 3.308594 2.582031 C 2.839844 2.582031 2.457031 2.964844 2.457031 3.433594 L 2.457031 3.574219 C 2.457031 3.105469 2.839844 2.722656 3.308594 2.722656 L 11.90625 2.722656 C 12.375 2.722656 12.757812 3.105469 12.757812 3.574219 L 12.757812 3.433594 C 12.757812 2.964844 12.375 2.582031 11.90625 2.582031 Z M 12.757812 7.457031 L 12.382812 7.832031 L 12.382812 7.972656 L 12.757812 7.597656 Z M 2.832031 12.03125 L 2.832031 12.171875 C 2.832031 12.4375 3.042969 12.644531 3.308594 12.644531 L 11.90625 12.644531 C 12.171875 12.644531 12.382812 12.4375 12.382812 12.171875 L 12.382812 12.03125 C 12.382812 12.296875 12.171875 12.507812 11.90625 12.507812 L 3.308594 12.507812 C 3.042969 12.507812 2.832031 12.296875 2.832031 12.03125 Z M 2.832031 12.03125 "/>
<path style=" stroke:none;fill-rule:nonzero;fill:rgb(0%,0%,0%);fill-opacity:0.235294;" d="M 3.308594 2.976562 C 3.042969 2.976562 2.832031 3.183594 2.832031 3.449219 L 2.832031 3.699219 C 2.832031 3.433594 3.042969 3.226562 3.308594 3.226562 L 11.90625 3.226562 C 12.171875 3.226562 12.382812 3.433594 12.382812 3.699219 L 12.382812 3.449219 C 12.382812 3.183594 12.171875 2.976562 11.90625 2.976562 Z M 12.757812 3.679688 L 12.382812 4.054688 L 12.382812 4.304688 L 12.757812 3.929688 L 12.757812 3.699219 C 12.757812 3.691406 12.757812 3.6875 12.757812 3.679688 Z M 2.457031 12.050781 L 2.457031 12.300781 C 2.457031 12.765625 2.839844 13.148438 3.308594 13.148438 L 11.90625 13.148438 C 12.375 13.148438 12.757812 12.765625 12.757812 12.300781 L 12.757812 12.050781 C 12.757812 12.519531 12.375 12.898438 11.90625 12.898438 L 3.308594 12.898438 C 2.839844 12.898438 2.457031 12.519531 2.457031 12.050781 Z M 2.457031 12.050781 "/>
<path style="fill:none;stroke-width:11.338583;stroke-linecap:round;stroke-linejoin:round;stroke:rgb(12.941177%,12.941177%,12.941177%);stroke-opacity:1;stroke-miterlimit:4;" d="M 400.119292 312.253662 C 343.431789 312.253662 297.136995 358.548456 297.136995 415.235959 L 297.136995 1454.979243 C 297.136995 1511.666746 343.431789 1557.96154 400.119292 1557.96154 L 1439.862576 1557.96154 C 1496.550079 1557.96154 1542.844873 1511.666746 1542.844873 1454.979243 L 1542.844873 901.803693 L 1497.49487 947.153696 L 1497.49487 1454.979243 C 1497.49487 1487.102162 1471.985494 1512.611538 1439.862576 1512.611538 L 400.119292 1512.611538 C 367.996374 1512.611538 342.486997 1487.102162 342.486997 1454.979243 L 342.486997 415.235959 C 342.486997 383.113041 367.996374 357.603665 400.119292 357.603665 L 1439.862576 357.603665 C 1471.985494 357.603665 1497.49487 383.113041 1497.49487 415.235959 L 1497.49487 488.457317 L 1542.844873 443.107315 L 1542.844873 415.235959 C 1542.844873 358.548456 1496.550079 312.253662 1439.862576 312.253662 Z M 400.119292 312.253662 " transform="matrix(0.00826902,0,0,0.00826902,0,0)"/>
</g>
</svg>
